!!!OTL: 350. Die drei Reiche der Natur.
!!!COM: Volkslied
!!!ODT: 1810
!!!ARE: Europa, Mitteleuropa, Deutschland
!!!SCT: B0350
!!!TXL: @@DE
!!!YEM: Copyright 1995, estate of Helmut Schaffrath.
**kern	**text
*ICvox	*
*Ivox	*
*clefG2	*
*M3/4	*
*k[b-]	*
*F:	*
!LO:TX:a:t=Recitirend. Einʒelne.	!
{8c	Jch
=1	=1
8.a	trink',
16g	und
4.f	trin-
8c	-kend
=2	=2
8.b-/	fällt
16a	mit
4g	bei,
8r}	.
{8cc	wa-
=3	=3
8.cc	-rum
16cc	Na-
8b-L	-tur-
8aJ	.
8gL	-reich
8fJ	.
=4	=4
8e	drei-
8f	-fach
!LO:N:vis=4	!
4g.;}	ſei!
{8g	Die
=5	=5
8.g	Thier'
16g	und
8g	Menſchen
8g	.
8a	trin-
8bn	-ken,
=6	=6
4dd	lie-
8cc	-ben,
8r}	.
{4cc	ein
=7	=7
8.ff	jeg-
16ee	-li-
8dd	-ches
8cc	nach
8bn/	ſei-
8a	-nen
=8	=8
(8gL	Trie-
16a	.
16bnJ)	.
4.cc;}	-ben:
{8c	Del-
=9	=9
8.a	-phin
16g	und
4.f	Ad-
8c	-ler,
=10	=10
8.b-/	Floh
16a	und
4g	Hund
8r}	.
{8cc	em-
=11	=11
8.cc	-pfin-
16cc	-det
8b-L	Lieb'
8aJ	.
8gL	und
8fJ	.
=12	=12
8e	netʒt
8f	den
4.g;}	Mund.
!LO:TX:a:t=Etwas raſcher.	!
{8c	Was
=13	=13
8.a	al-
16g	-ſo
4.f	trinkt
8f	und
=14	=14
8.b-	lie-
16a	-ben
4g	kann,
8r}	.
{8cc	wird
=15	=15
8cc	in
!LO:TX:a:t=Bei Wiederholung vom Chor gesungen.	!
(16ddL	das
16eeJ)	.
(8.ffL	er-
16cc	.
8aJ)	.
8f	-ſte
=16	=16
2cc	Reich
4c	ge-
=17	=17
4f	-than.
4r	.
8r}	.
{8c	Was
=18	=18
8.a	al-
16g	-ſo
4.f	trinkt
8f	und
=19	=19
8.b-	lie-
16a	-ben
4g	kann,
8r}	.
{8cc	wird
=20	=20
8cc	in
(16ddL	das
16eeJ)	.
(8.ffL	er-
16cc	.
8aJ)	.
8f	-ſte
=21	=21
2cc	Reich
4c	ge-
=22	=22
4f	-than.
4r	.
8r}	.
==	==
!!!AGN: Trink - Lied
!!!GTL: Wein- und Trinklieder
!!!ONB: ESAC (Essen Associative Code) Database: BOEHME
!!!AMT: simple triple
!!!AIN: vox
!!!EED: Helmut Schaffrath
!!!EEV: 1.0
!!@@COMMENT:"Gedicht von Gotthold Ephraim Leſſing. Ʒuerſt in Der Naturforſcher. Leipʒig 1747.
!!Stück 9, S. 711, mit dem Anfange: Drey Reiche find's die in der Welt uns die Natur vor Augen
!!hält" rc. Unterʒeichnet L. - Dann in Leſſing's Schriften (Ausg. von Maltʒahn J, S. 31). -
!!Mel. und Text hier nach Hoffmann, Volksſgb. 1848 Nr. 90 und Erk, Germania Nr. 305."
!!@@END:
!!!Text: G. E. Lessing
!!!URL-scan: https://archive.org/details/BoehmeVtLieder1895/page/n291/mode/2up
!!!ENC: Anna Maria Matuszewska
!!!EEV: 2024/05/07
*-	*-
